X:120
T:Odiham Races
M: C|
L:1/8
B:Thompson's Compleat Collection of 200 Favourite Country Dances, vol. 3 (London, 1773)
Z:Transcribed and edited by Flynn Titford-Mock, 2007
Z:abc's:AK/Fiddler's Companion
K:A
E | AGAB AecA | BABc BfdB | cecA BdBG | A4 A,3 :|
|: e | aecA fgaf | ecBA GBGE | aecA fgaf | edcB A3 :|

